X:18759
T:Wigwam Polka  (Bm & D)
C:Andy De Jarlis
M:2/4
L:1/16
K:Bm
F2|BcBA Bcde|f2d2 f4|b2f2 g2fa|gfed cBAF|!
BcBA Bcde|f2d2 f4|b2f2 a2eg|fedc B2:|!
K:D
B2|A2FA d2Ad|f2df a3f|g2f2 e2ce|b2ab a^ga2|!
A2FA d2Ad|f2df a3f|g2e2 Aceg|f2d2 d2:|!


